X:1
T:Title
%%score ( 1 2 ) { 3 | 4 }
L:1/8
Q:1/4=95
M:4/4
K:A
V:1 treble nm="Grand Piano, Soprano"
V:2 treble 
V:3 bass nm="Choir Pad, When City Cometh Down"
V:4 bass 
V:1
 [CE][CF][CA][CA] [CA][DB][CA][CE] | [DF][DA] [CE]6 | [CE][CA][Ec][Ec] [Ec][Ec][Ec][DB] | %3
w: By~L.~A.~Morris * * * * * * *|||
 [CA][Fc] [Ge]6 | [Ae][Ae][Af][Ae] [Ae][Ac][EB][EA] | [EA][Ac][FB][FA] [DF][DA][DF][CE] | %6
w: |||
 [CE][CF] [FA]<[FA] A[AB] [Ac]2 | [EB]<[EB] A2- [FA-]<[FA-] [EA]2 | %8
w: ||
 [Ac]<[EA] c-[Ac-] [Ac]<[GB] [FA]2 | z2 .A4 z2 | [CE][CF] [CA]<[CA] [CA][DB] [Ec]2 | %11
w: |||
 [FA]<[Fc] [Ge]6 | [Ae][Ae][Af][Ae] [Ae][Ac][EB][EA] | [EA][Ac][FB][FA] [DF][DA][DF][CE] | %14
w: |||
 [CE][CF] [FA]<[FA] A[AB] [Ac]2 | z2 A6- | A6 z2 |] %17
w: |||
V:2
 x8 | x8 | x8 | x8 | x8 | x8 | x8 | z2 E2 z4 | z2 .A2 z4 | [^EB]<[Ec] FF F<[DF] [C=E]2 | x8 | x8 | %12
 x8 | x8 | x8 | [EB]<[EB] E2 F<F E2- | E6 z2 |] %17
V:3
 A,A,E,E, E,E,E,A, | A,F, A,6 | z4 z2 z G, | A,A, B,6 | C[K:treble]CDC CEDC | %5
 CEDD[K:bass] A,A, A,2 | A,A,[K:treble] C<C CD E2 | D<D C2 D<D C2 | A,<C EE E<D C2 | %9
 C<C[K:bass] F,A, A,<A, A,2 | A,A, A,<A, A,A, A,2 | A,<A, B,6 | CCDC CEDC | CEDD[K:bass] A,A, A,2 | %14
 A,A,[K:treble] C<C CD E2 | D<D C2 D<D C2- | C6 z2 |] %17
V:4
 A,,A,,A,,A,, A,,A,,A,,A,, | A,,A,, A,,2 C,E, A,,2 | A,A,A,A, A,A,A,E, | F,F, E,6 | %4
 A,A,A,A, A,A,A,A, | A,A,D,D, D,F, z2 | z2 F,<F, F,F, E,2 | E,<E, A,,6 | z/ A,3/2 A,A, A,<E, F,2 | %9
 C,<C, D,D, D,<F, z2 | z8 | F,<F, E,6 | A,A,A,A, A,A,A,A, | A,A,D,D, D,F, z2 | z2 F,<F, F,F, E,2 | %15
 E,<E, A,,6- | A,,6 z2 |] %17

